public/photo_c.svg

<?xml version="1.0" encoding="UTF-8" standalone="no"?>
<!DOCTYPE svg PUBLIC "-//W3C//DTD SVG 1.1//EN" "http://www.w3.org/Graphics/SVG/1.1/DTD/svg11.dtd">
<!-- Created with Vectornator (http://vectornator.io/) -->
<svg height="100%" stroke-miterlimit="10" style="fill-rule:nonzero;clip-rule:evenodd;stroke-linecap:round;stroke-linejoin:round;" version="1.1" viewBox="0 0 800 1200" width="100%" xml:space="preserve" xmlns="http://www.w3.org/2000/svg" xmlns:vectornator="http://vectornator.io" xmlns:xlink="http://www.w3.org/1999/xlink">
<defs>
<linearGradient gradientTransform="matrix(-33.7244 -2.59419 0.00664621 -33.7244 41.0433 622.864)" gradientUnits="userSpaceOnUse" id="LinearGradient" x1="0" x2="1" y1="0" y2="0">
<stop offset="0" stop-color="#f0d581"/>
<stop offset="0.49375" stop-color="#b8995f"/>
<stop offset="1" stop-color="#f1cd4b"/>
</linearGradient>
<linearGradient gradientTransform="matrix(1.63568 -33.735 22.4828 -0.133995 384.901 38.2032)" gradientUnits="userSpaceOnUse" id="LinearGradient_2" x1="0" x2="1" y1="0" y2="0">
<stop offset="0" stop-color="#f0d581"/>
<stop offset="0.49375" stop-color="#b8995f"/>
<stop offset="1" stop-color="#f1cd4b"/>
</linearGradient>
<linearGradient gradientTransform="matrix(33.7239 2.60095 -0.0134065 33.7244 764.185 577.355)" gradientUnits="userSpaceOnUse" id="LinearGradient_3" x1="0" x2="1" y1="0" y2="0">
<stop offset="0" stop-color="#f0d581"/>
<stop offset="0.49375" stop-color="#b8995f"/>
<stop offset="1" stop-color="#f1cd4b"/>
</linearGradient>
<linearGradient gradientTransform="matrix(-1.77566 33.719 -22.4744 -0.0769747 415.404 1159.68)" gradientUnits="userSpaceOnUse" id="LinearGradient_4" x1="0" x2="1" y1="0" y2="0">
<stop offset="0" stop-color="#f0d581"/>
<stop offset="0.49375" stop-color="#b8995f"/>
<stop offset="1" stop-color="#f1cd4b"/>
</linearGradient>
</defs>
<clipPath id="ArtboardFrame">
<rect height="1200" width="800" x="0" y="0"/>
</clipPath>
<g clip-path="url(#ArtboardFrame)" id="Layer-3" vectornator:layerName="Layer 3">
<path d="M0-0.4114L40.4927 38.8758L40.4927 1159.48L0 1200" fill="url(#LinearGradient)" fill-rule="nonzero" opacity="1" stroke="none" vectornator:layerName="Curve 4"/>
<path d="M800 0L760.115 39.2872L32.3685 39.2872L-5.68434e-14-1.42109e-14" fill="url(#LinearGradient_2)" fill-rule="nonzero" opacity="1" stroke="none" vectornator:layerName="Curve 5"/>
<path d="M800 1200L760.115 1159.89L760.115 39.2872L800 0" fill="url(#LinearGradient_3)" fill-rule="nonzero" opacity="1" stroke="none" vectornator:layerName="Curve 6"/>
<path d="M0 1200L40.4606 1159.12L760.115 1159.89L800 1200" fill="url(#LinearGradient_4)" fill-rule="nonzero" opacity="1" stroke="none" vectornator:layerName="Curve 7"/>
<path d="M50.8213 49.5886L749.505 49.5886L749.505 1149.59L50.8213 1149.59L50.8213 49.5886Z" fill="#ffffff" fill-rule="nonzero" opacity="1" stroke="none" vectornator:layerName="Curve 8"/>
<path d="M40.4927 39.2872L760.115 39.2872L749.505 49.5886L48.5128 49.5886L40.4927 39.2872Z" fill="#9c8461" fill-rule="nonzero" opacity="1" stroke="none" vectornator:layerName="Curve 9"/>
<path d="M40.4606 39.2872L40.4927 1159.12L50.8213 1149.59L50.7993 49.5259L40.4606 39.2872Z" fill="#9c8461" fill-rule="nonzero" opacity="1" stroke="none" vectornator:layerName="Curve 10"/>
<path d="M40.4606 1159.12L50.7993 1149.59L751.932 1149.59L760.115 1159.89L40.4606 1159.12Z" fill="#ab9c7f" fill-rule="nonzero" opacity="1" stroke="none" vectornator:layerName="Curve 11"/>
<path d="M760.115 1159.89L760.115 39.2872L749.715 49.2198L749.505 1149.59L760.115 1159.89Z" fill="#ab9c7f" fill-rule="nonzero" opacity="1" stroke="none" vectornator:layerName="Curve 12"/>
</g>
<g id="Layer-2" vectornator:layerName="Layer 2">
<path d="M150 150L150 1050L650 1050L650 150" fill="#ffdcdd" fill-rule="nonzero" opacity="1" stroke="none" vectornator:layerName="Curve 1"/>
<path d="M560 600L620 600L620.568 1050L560.248 1050L560 600Z" fill="#e9e3e3" fill-rule="nonzero" opacity="1" stroke="none" vectornator:layerName="Curve 6"/>
<path d="M620 600L639.597 590.901L584.5 590.072L570.527 600L620 600Z" fill="#f5f5f5" fill-rule="nonzero" opacity="1" stroke="none" vectornator:layerName="Curve 12"/>
<path d="M620.038 599.982L639.677 590.859L640.032 1050L620.724 1050L620.038 599.982Z" fill="#ccbbbb" fill-rule="nonzero" opacity="1" stroke="none" vectornator:layerName="Curve 13"/>
<path d="M520 360L439.993 535.64L439.76 1050L601.085 1050L600.003 521.537L520 360Z" fill="#9fb5a2" fill-rule="nonzero" opacity="1" stroke="none" vectornator:layerName="Curve 2"/>
<path d="M220 460L400 460L400.513 1050L221.027 1050L220 460Z" fill="#bfbfbf" fill-rule="nonzero" opacity="1" stroke="none" vectornator:layerName="Curve 3"/>
<path d="M180 600L179.822 1050L340.513 1050L340 600L180 600Z" fill="#b49db5" fill-rule="nonzero" opacity="1" stroke="none" vectornator:layerName="Curve 4"/>
<path d="M521.618 363.236L560 540L599.708 520.941L521.618 363.236Z" fill="#758677" fill-rule="nonzero" opacity="1" stroke="none" vectornator:layerName="Curve 5"/>
<path d="M400 460L420 440L420.006 1050L400.502 1050L400 460Z" fill="#a4a4a4" fill-rule="nonzero" opacity="1" stroke="none" vectornator:layerName="Curve 7"/>
<path d="M220 460L240 440L420 440L400.161 459.839L220 460Z" fill="#e9e3e3" fill-rule="nonzero" opacity="1" stroke="none" vectornator:layerName="Curve 8"/>
<path d="M180.86 600L200 580L360 580L340 600L180.86 600Z" fill="#ebdbf1" fill-rule="nonzero" opacity="1" stroke="none" vectornator:layerName="Curve 9"/>
<path d="M339.884 600L360 580L360.914 1050L338.724 1050L339.884 600Z" fill="#87748c" fill-rule="nonzero" opacity="1" stroke="none" vectornator:layerName="Curve 10"/>
<path d="M560 540L559.839 1050L600.98 1050L599.621 520.765L560 540Z" fill="#839686" fill-rule="nonzero" opacity="1" stroke="none" vectornator:layerName="Curve 14"/>
</g>
</svg>

<svg xmlns="http://www.w3.org/2000/svg" xmlns:vectornator="http://vectornator.io" xml:space="preserve" stroke-miterlimit="10" style="fill-rule:nonzero;clip-rule:evenodd;stroke-linecap:round;stroke-linejoin:round" viewBox="0 0 800 1200"><defs><linearGradient id="b" x1="0" x2="1" y1="0" y2="0" gradientTransform="matrix(-33.7244 -2.59419 .00665 -33.7244 41.043 622.864)" gradientUnits="userSpaceOnUse"><stop offset="0" stop-color="#f0d581"/><stop offset=".494" stop-color="#b8995f"/><stop offset="1" stop-color="#f1cd4b"/></linearGradient><linearGradient id="c" x1="0" x2="1" y1="0" y2="0" gradientTransform="matrix(1.63568 -33.735 22.4828 -.134 384.901 38.203)" gradientUnits="userSpaceOnUse"><stop offset="0" stop-color="#f0d581"/><stop offset=".494" stop-color="#b8995f"/><stop offset="1" stop-color="#f1cd4b"/></linearGradient><linearGradient id="d" x1="0" x2="1" y1="0" y2="0" gradientTransform="matrix(33.7239 2.60095 -.0134 33.7244 764.185 577.355)" gradientUnits="userSpaceOnUse"><stop offset="0" stop-color="#f0d581"/><stop offset=".494" stop-color="#b8995f"/><stop offset="1" stop-color="#f1cd4b"/></linearGradient><linearGradient id="e" x1="0" x2="1" y1="0" y2="0" gradientTransform="matrix(-1.77566 33.719 -22.4744 -.07697 415.404 1159.68)" gradientUnits="userSpaceOnUse"><stop offset="0" stop-color="#f0d581"/><stop offset=".494" stop-color="#b8995f"/><stop offset="1" stop-color="#f1cd4b"/></linearGradient></defs><clipPath id="a"><path d="M0 0h800v1200H0z"/></clipPath><g vectornator:layerName="Layer 3" clip-path="url(#a)"><path vectornator:layerName="Curve 4" fill="url(#b)" d="m0-.411 40.493 39.287V1159.48L0 1200"/><path vectornator:layerName="Curve 5" fill="url(#c)" d="m800 0-39.885 39.287H32.369L0 0"/><path vectornator:layerName="Curve 6" fill="url(#d)" d="m800 1200-39.885-40.11V39.287L800 0"/><path vectornator:layerName="Curve 7" fill="url(#e)" d="m0 1200 40.46-40.88 719.655.77L800 1200"/><path vectornator:layerName="Curve 8" fill="#fff" d="M50.821 49.589h698.684V1149.59H50.821V49.589Z"/><path vectornator:layerName="Curve 9" fill="#9c8461" d="M40.493 39.287h719.622l-10.61 10.302H48.513l-8.02-10.302Z"/><path vectornator:layerName="Curve 10" fill="#9c8461" d="m40.46 39.287.033 1119.833 10.328-9.53L50.8 49.526 40.461 39.287Z"/><path vectornator:layerName="Curve 11" fill="#ab9c7f" d="m40.46 1159.12 10.34-9.53h701.132l8.183 10.3-719.654-.77Z"/><path vectornator:layerName="Curve 12" fill="#ab9c7f" d="M760.115 1159.89V39.287l-10.4 9.933-.21 1100.37 10.61 10.3Z"/></g><g vectornator:layerName="Layer 2"><path vectornator:layerName="Curve 1" fill="#ffdcdd" d="M150 150v900h500V150"/><path vectornator:layerName="Curve 6" fill="#e9e3e3" d="M560 600h60l.568 450h-60.32L560 600Z"/><path vectornator:layerName="Curve 12" fill="#f5f5f5" d="m620 600 19.597-9.099-55.097-.829L570.527 600H620Z"/><path vectornator:layerName="Curve 13" fill="#cbb" d="m620.038 599.982 19.639-9.123.355 459.141h-19.308l-.686-450.018Z"/><path vectornator:layerName="Curve 2" fill="#9fb5a2" d="m520 360-80.007 175.64-.233 514.36h161.325l-1.082-528.463L520 360Z"/><path vectornator:layerName="Curve 3" fill="#bfbfbf" d="M220 460h180l.513 590H221.027L220 460Z"/><path vectornator:layerName="Curve 4" fill="#b49db5" d="m180 600-.178 450h160.691L340 600H180Z"/><path vectornator:layerName="Curve 5" fill="#758677" d="M521.618 363.236 560 540l39.708-19.059-78.09-157.705Z"/><path vectornator:layerName="Curve 7" fill="#a4a4a4" d="m400 460 20-20 .006 610h-19.504L400 460Z"/><path vectornator:layerName="Curve 8" fill="#e9e3e3" d="m220 460 20-20h180l-19.839 19.839L220 460Z"/><path vectornator:layerName="Curve 9" fill="#ebdbf1" d="M180.86 600 200 580h160l-20 20H180.86Z"/><path vectornator:layerName="Curve 10" fill="#87748c" d="M339.884 600 360 580l.914 470h-22.19l1.16-450Z"/><path vectornator:layerName="Curve 14" fill="#839686" d="m560 540-.161 510h41.141l-1.359-529.235L560 540Z"/></g></svg>
